static/img/kroki/21e2cb57b90d657ed0b2be276fc7679a.svg

<?xml version="1.0" encoding="us-ascii" standalone="no"?><svg xmlns="http://www.w3.org/2000/svg" xmlns:xlink="http://www.w3.org/1999/xlink" contentStyleType="text/css" height="651px" preserveAspectRatio="none" style="width:485px;height:651px;" version="1.1" viewBox="0 0 485 651" width="485px" zoomAndPan="magnify"><defs/><g><!--class dockerhub_repository--><g id="elem_dockerhub_repository"><rect codeLine="22" fill="#3D176E" height="205.5703" id="dockerhub_repository" rx="2.5" ry="2.5" style="stroke:#000D19;stroke-width:0.5;" width="222" x="126.5" y="438.76"/><ellipse cx="141.5" cy="458.6545" fill="#ADD1B2" rx="11" ry="11" style="stroke:#181818;stroke-width:1.0;"/><path d="M144.4688,464.2952 Q143.8906,464.592 143.25,464.7327 Q142.6094,464.8889 141.9063,464.8889 Q139.4063,464.8889 138.0781,463.2483 Q136.7656,461.592 136.7656,458.467 Q136.7656,455.342 138.0781,453.6858 Q139.4063,452.0295 141.9063,452.0295 Q142.6094,452.0295 143.25,452.1858 Q143.9063,452.342 144.4688,452.6389 L144.4688,455.3577 Q143.8438,454.7795 143.25,454.5139 Q142.6563,454.2327 142.0313,454.2327 Q140.6875,454.2327 140,455.3108 Q139.3125,456.3733 139.3125,458.467 Q139.3125,460.5608 140,461.6389 Q140.6875,462.7014 142.0313,462.7014 Q142.6563,462.7014 143.25,462.4358 Q143.8438,462.1545 144.4688,461.5764 L144.4688,464.2952 Z " fill="#000000"/><text fill="#D9B8FF" font-family="Helvetica" font-size="17" lengthAdjust="spacing" textLength="180" x="160.5" y="464.5398">dockerhub_repository</text><line style="stroke:#000D19;stroke-width:0.5;" x1="127.5" x2="347.5" y1="478.5491" y2="478.5491"/><text fill="#D9B8FF" font-family="sans-serif" font-size="14" font-weight="bold" lengthAdjust="spacing" textLength="72" x="137.5" y="500.5442">affiliation</text><text fill="#D9B8FF" font-family="sans-serif" font-size="14" lengthAdjust="spacing" textLength="48" x="209.5" y="500.5442">: string</text><text fill="#D9B8FF" font-family="sans-serif" font-size="14" font-weight="bold" lengthAdjust="spacing" textLength="75" x="137.5" y="526.8411">is_private</text><text fill="#D9B8FF" font-family="sans-serif" font-size="14" lengthAdjust="spacing" textLength="65" x="212.5" y="526.8411">: boolean</text><text fill="#D9B8FF" font-family="sans-serif" font-size="14" font-weight="bold" lengthAdjust="spacing" textLength="98" x="137.5" y="553.1379">media_types</text><text fill="#D9B8FF" font-family="sans-serif" font-size="14" lengthAdjust="spacing" textLength="58" x="235.5" y="553.1379">: string[]</text><text fill="#D9B8FF" font-family="sans-serif" font-size="14" font-weight="bold" lengthAdjust="spacing" textLength="80" x="137.5" y="579.4348">pull_count</text><text fill="#D9B8FF" font-family="sans-serif" font-size="14" lengthAdjust="spacing" textLength="44" x="217.5" y="579.4348">: int64</text><text fill="#D9B8FF" font-family="sans-serif" font-size="14" font-weight="bold" lengthAdjust="spacing" textLength="124" x="137.5" y="605.7317">repository_type</text><text fill="#D9B8FF" font-family="sans-serif" font-size="14" lengthAdjust="spacing" textLength="48" x="261.5" y="605.7317">: string</text><text fill="#D9B8FF" font-family="sans-serif" font-size="14" font-weight="bold" lengthAdjust="spacing" textLength="83" x="137.5" y="632.0286">star_count</text><text fill="#D9B8FF" font-family="sans-serif" font-size="14" lengthAdjust="spacing" textLength="44" x="220.5" y="632.0286">: int64</text></g><!--class dockerhub_resource--><g id="elem_dockerhub_resource"><rect codeLine="30" fill="#3D176E" height="39.7891" id="dockerhub_resource" rx="2.5" ry="2.5" style="stroke:#000D19;stroke-width:0.5;" width="209" x="7" y="142.49"/><ellipse cx="22" cy="162.3845" fill="#ADD1B2" rx="11" ry="11" style="stroke:#181818;stroke-width:1.0;"/><path d="M24.9688,168.0252 Q24.3906,168.322 23.75,168.4627 Q23.1094,168.6189 22.4063,168.6189 Q19.9063,168.6189 18.5781,166.9783 Q17.2656,165.322 17.2656,162.197 Q17.2656,159.072 18.5781,157.4158 Q19.9063,155.7595 22.4063,155.7595 Q23.1094,155.7595 23.75,155.9158 Q24.4063,156.072 24.9688,156.3689 L24.9688,159.0877 Q24.3438,158.5095 23.75,158.2439 Q23.1563,157.9627 22.5313,157.9627 Q21.1875,157.9627 20.5,159.0408 Q19.8125,160.1033 19.8125,162.197 Q19.8125,164.2908 20.5,165.3689 Q21.1875,166.4314 22.5313,166.4314 Q23.1563,166.4314 23.75,166.1658 Q24.3438,165.8845 24.9688,165.3064 L24.9688,168.0252 Z " fill="#000000"/><text fill="#D9B8FF" font-family="Helvetica" font-size="17" lengthAdjust="spacing" textLength="167" x="41" y="168.2698">dockerhub_resource</text></g><!--class resource--><g id="elem_resource"><rect codeLine="32" fill="#3D176E" height="310.7578" id="resource" rx="2.5" ry="2.5" style="stroke:#000D19;stroke-width:0.5;" width="227" x="251" y="7"/><ellipse cx="319.75" cy="26.8945" fill="#ADD1B2" rx="11" ry="11" style="stroke:#181818;stroke-width:1.0;"/><path d="M322.7188,32.5352 Q322.1406,32.832 321.5,32.9727 Q320.8594,33.1289 320.1563,33.1289 Q317.6563,33.1289 316.3281,31.4883 Q315.0156,29.832 315.0156,26.707 Q315.0156,23.582 316.3281,21.9258 Q317.6563,20.2695 320.1563,20.2695 Q320.8594,20.2695 321.5,20.4258 Q322.1563,20.582 322.7188,20.8789 L322.7188,23.5977 Q322.0938,23.0195 321.5,22.7539 Q320.9063,22.4727 320.2813,22.4727 Q318.9375,22.4727 318.25,23.5508 Q317.5625,24.6133 317.5625,26.707 Q317.5625,28.8008 318.25,29.8789 Q318.9375,30.9414 320.2813,30.9414 Q320.9063,30.9414 321.5,30.6758 Q322.0938,30.3945 322.7188,29.8164 L322.7188,32.5352 Z " fill="#000000"/><text fill="#D9B8FF" font-family="Helvetica" font-size="17" lengthAdjust="spacing" textLength="71" x="345.25" y="32.7798">resource</text><line style="stroke:#000D19;stroke-width:0.5;" x1="252" x2="477" y1="46.7891" y2="46.7891"/><text fill="#D9B8FF" font-family="sans-serif" font-size="14" font-weight="bold" lengthAdjust="spacing" textLength="29" x="262" y="68.7842">age</text><text fill="#D9B8FF" font-family="sans-serif" font-size="14" lengthAdjust="spacing" textLength="66" x="291" y="68.7842">: duration</text><text fill="#D9B8FF" font-family="sans-serif" font-size="14" font-weight="bold" lengthAdjust="spacing" textLength="43" x="262" y="95.0811">atime</text><text fill="#D9B8FF" font-family="sans-serif" font-size="14" lengthAdjust="spacing" textLength="70" x="305" y="95.0811">: datetime</text><text fill="#D9B8FF" font-family="sans-serif" font-size="14" font-weight="bold" lengthAdjust="spacing" textLength="43" x="262" y="121.3779">ctime</text><text fill="#D9B8FF" font-family="sans-serif" font-size="14" lengthAdjust="spacing" textLength="70" x="305" y="121.3779">: datetime</text><text fill="#D9B8FF" font-family="sans-serif" font-size="14" font-weight="bold" lengthAdjust="spacing" textLength="14" x="262" y="147.6748">id</text><text fill="#D9B8FF" font-family="sans-serif" font-size="14" lengthAdjust="spacing" textLength="48" x="276" y="147.6748">: string</text><text fill="#D9B8FF" font-family="sans-serif" font-size="14" font-weight="bold" lengthAdjust="spacing" textLength="33" x="262" y="173.9717">kind</text><text fill="#D9B8FF" font-family="sans-serif" font-size="14" lengthAdjust="spacing" textLength="48" x="295" y="173.9717">: string</text><text fill="#D9B8FF" font-family="sans-serif" font-size="14" font-weight="bold" lengthAdjust="spacing" textLength="90" x="262" y="200.2686">last_access</text><text fill="#D9B8FF" font-family="sans-serif" font-size="14" lengthAdjust="spacing" textLength="66" x="352" y="200.2686">: duration</text><text fill="#D9B8FF" font-family="sans-serif" font-size="14" font-weight="bold" lengthAdjust="spacing" textLength="90" x="262" y="226.5654">last_update</text><text fill="#D9B8FF" font-family="sans-serif" font-size="14" lengthAdjust="spacing" textLength="66" x="352" y="226.5654">: duration</text><text fill="#D9B8FF" font-family="sans-serif" font-size="14" font-weight="bold" lengthAdjust="spacing" textLength="48" x="262" y="252.8623">mtime</text><text fill="#D9B8FF" font-family="sans-serif" font-size="14" lengthAdjust="spacing" textLength="70" x="310" y="252.8623">: datetime</text><text fill="#D9B8FF" font-family="sans-serif" font-size="14" font-weight="bold" lengthAdjust="spacing" textLength="43" x="262" y="279.1592">name</text><text fill="#D9B8FF" font-family="sans-serif" font-size="14" lengthAdjust="spacing" textLength="48" x="305" y="279.1592">: string</text><text fill="#D9B8FF" font-family="sans-serif" font-size="14" font-weight="bold" lengthAdjust="spacing" textLength="34" x="262" y="305.4561">tags</text><text fill="#D9B8FF" font-family="sans-serif" font-size="14" lengthAdjust="spacing" textLength="171" x="296" y="305.4561">: dictionary[string, string]</text></g><!--reverse link dockerhub_resource to dockerhub_repository--><g id="link_dockerhub_resource_dockerhub_repository"><path codeLine="44" d="M124.47,202.21 C142.93,257.45 177.42,360.7 203.46,438.66 " fill="none" id="dockerhub_resource-backto-dockerhub_repository" style="stroke:#FFAF37;stroke-width:2.0;"/><polygon fill="none" points="117.62,204.79,117.92,183.6,130.9,200.35,117.62,204.79" style="stroke:#FFAF37;stroke-width:2.0;"/></g><!--reverse link resource to dockerhub_repository--><g id="link_resource_dockerhub_repository"><path codeLine="45" d="M305.78,337.77 C294.17,372.25 282.35,407.36 271.87,438.46 " fill="none" id="resource-backto-dockerhub_repository" style="stroke:#FFAF37;stroke-width:2.0;"/><polygon fill="none" points="299.37,335.87,312.39,319.15,312.64,340.34,299.37,335.87" style="stroke:#FFAF37;stroke-width:2.0;"/></g><!--SRC=[ZPFDQnin4CNl_Yi4kPaQxAQDuz9BQYZj9PIcjn2MMMba2w-aPJIRu7xyxvLsdKRxaQGtyzvFyzxCuhrHAD3MV1GMROaKPk5WN0q4LbmH-OUjhpo9Cwr1dw-7vcVl-5NW6YoABrZT8ni9G-B7tiY3mn34sypw1FAm8zyurOrd0XUYXOupQbj125VCPCg6CIkZDkMbraDoEFJiNAtM5pZ2F2ca4x9SBjLgCqHUZNfnxt_4ZVc9OfKVxTepZcgE8bhgnPQ9o4gE5dtqd-tu3PGoRYVUPzhthXCvf9v-imVb7nAjeGfvJ60az7oiSJlQ2ZUNIgyduQ_FmJ9TJYWl3qZxfYm8QnyCUpgANxFv7BGsbG4stitd7-90YgMYRa9Haxa7nYINtbS8BkeMbO4Y9OOd_lOkEdLJLOMC1JWPnl75kwW-nRMFUXc1WOOl_amK3huXYR7kevb9SODTErKrr6wH53QsqsBzz3jgSa8pgbSdNhKln2mkGChuJniaj4vJgzDvCiTEv3Ym_SKPTjr48zCpeEDjvxqvCNTnrOaBVFozM2mcl-NiFvY_]--></g></svg>

<svg xmlns="http://www.w3.org/2000/svg" width="485" height="651" preserveAspectRatio="none" style="width:485px;height:651px"><rect width="222" height="205.57" x="126.5" y="438.76" fill="#3D176E" rx="2.5" ry="2.5" style="stroke:#000d19;stroke-width:.5"/><circle cx="141.5" cy="458.654" r="11" fill="#ADD1B2" style="stroke:#181818;stroke-width:1"/><path d="M144.469 464.295q-.578.297-1.219.438-.64.156-1.344.156-2.5 0-3.828-1.64-1.312-1.657-1.312-4.782t1.312-4.781q1.328-1.656 3.828-1.656.703 0 1.344.156.656.156 1.219.453v2.719q-.625-.579-1.219-.844-.594-.281-1.219-.281-1.344 0-2.031 1.078-.688 1.062-.688 3.156 0 2.094.688 3.172.688 1.062 2.031 1.062.625 0 1.219-.265.594-.281 1.219-.86v2.72Z"/><text x="160.5" y="464.54" fill="#D9B8FF" font-family="Helvetica" font-size="17" textLength="180">dockerhub_repository</text><path d="M127.5 478.549h220" style="stroke:#000d19;stroke-width:.5"/><text x="137.5" y="500.544" fill="#D9B8FF" font-family="sans-serif" font-size="14" font-weight="bold" textLength="72">affiliation</text><text x="209.5" y="500.544" fill="#D9B8FF" font-family="sans-serif" font-size="14" textLength="48">: string</text><text x="137.5" y="526.841" fill="#D9B8FF" font-family="sans-serif" font-size="14" font-weight="bold" textLength="75">is_private</text><text x="212.5" y="526.841" fill="#D9B8FF" font-family="sans-serif" font-size="14" textLength="65">: boolean</text><text x="137.5" y="553.138" fill="#D9B8FF" font-family="sans-serif" font-size="14" font-weight="bold" textLength="98">media_types</text><text x="235.5" y="553.138" fill="#D9B8FF" font-family="sans-serif" font-size="14" textLength="58">: string[]</text><text x="137.5" y="579.435" fill="#D9B8FF" font-family="sans-serif" font-size="14" font-weight="bold" textLength="80">pull_count</text><text x="217.5" y="579.435" fill="#D9B8FF" font-family="sans-serif" font-size="14" textLength="44">: int64</text><text x="137.5" y="605.732" fill="#D9B8FF" font-family="sans-serif" font-size="14" font-weight="bold" textLength="124">repository_type</text><text x="261.5" y="605.732" fill="#D9B8FF" font-family="sans-serif" font-size="14" textLength="48">: string</text><text x="137.5" y="632.029" fill="#D9B8FF" font-family="sans-serif" font-size="14" font-weight="bold" textLength="83">star_count</text><text x="220.5" y="632.029" fill="#D9B8FF" font-family="sans-serif" font-size="14" textLength="44">: int64</text><rect width="209" height="39.789" x="7" y="142.49" fill="#3D176E" rx="2.5" ry="2.5" style="stroke:#000d19;stroke-width:.5"/><circle cx="22" cy="162.385" r="11" fill="#ADD1B2" style="stroke:#181818;stroke-width:1"/><path d="M24.969 168.025q-.578.297-1.219.438-.64.156-1.344.156-2.5 0-3.828-1.64-1.312-1.657-1.312-4.782t1.312-4.781q1.328-1.656 3.828-1.656.703 0 1.344.156.656.156 1.219.453v2.719q-.625-.578-1.219-.844-.594-.281-1.219-.281-1.343 0-2.031 1.078-.688 1.062-.688 3.156 0 2.094.688 3.172.688 1.062 2.031 1.062.625 0 1.219-.265.594-.281 1.219-.86v2.72Z"/><text x="41" y="168.27" fill="#D9B8FF" font-family="Helvetica" font-size="17" textLength="167">dockerhub_resource</text><rect width="227" height="310.758" x="251" y="7" fill="#3D176E" rx="2.5" ry="2.5" style="stroke:#000d19;stroke-width:.5"/><circle cx="319.75" cy="26.895" r="11" fill="#ADD1B2" style="stroke:#181818;stroke-width:1"/><path d="M322.719 32.535q-.578.297-1.219.438-.64.156-1.344.156-2.5 0-3.828-1.64-1.312-1.657-1.312-4.782t1.312-4.781q1.328-1.656 3.828-1.656.703 0 1.344.156.656.156 1.219.453v2.719q-.625-.578-1.219-.844-.594-.281-1.219-.281-1.344 0-2.031 1.078-.688 1.062-.688 3.156 0 2.094.688 3.172.688 1.062 2.031 1.062.625 0 1.219-.265.594-.281 1.219-.86v2.72Z"/><text x="345.25" y="32.78" fill="#D9B8FF" font-family="Helvetica" font-size="17" textLength="71">resource</text><path d="M252 46.789h225" style="stroke:#000d19;stroke-width:.5"/><text x="262" y="68.784" fill="#D9B8FF" font-family="sans-serif" font-size="14" font-weight="bold" textLength="29">age</text><text x="291" y="68.784" fill="#D9B8FF" font-family="sans-serif" font-size="14" textLength="66">: duration</text><text x="262" y="95.081" fill="#D9B8FF" font-family="sans-serif" font-size="14" font-weight="bold" textLength="43">atime</text><text x="305" y="95.081" fill="#D9B8FF" font-family="sans-serif" font-size="14" textLength="70">: datetime</text><text x="262" y="121.378" fill="#D9B8FF" font-family="sans-serif" font-size="14" font-weight="bold" textLength="43">ctime</text><text x="305" y="121.378" fill="#D9B8FF" font-family="sans-serif" font-size="14" textLength="70">: datetime</text><text x="262" y="147.675" fill="#D9B8FF" font-family="sans-serif" font-size="14" font-weight="bold" textLength="14">id</text><text x="276" y="147.675" fill="#D9B8FF" font-family="sans-serif" font-size="14" textLength="48">: string</text><text x="262" y="173.972" fill="#D9B8FF" font-family="sans-serif" font-size="14" font-weight="bold" textLength="33">kind</text><text x="295" y="173.972" fill="#D9B8FF" font-family="sans-serif" font-size="14" textLength="48">: string</text><text x="262" y="200.269" fill="#D9B8FF" font-family="sans-serif" font-size="14" font-weight="bold" textLength="90">last_access</text><text x="352" y="200.269" fill="#D9B8FF" font-family="sans-serif" font-size="14" textLength="66">: duration</text><text x="262" y="226.565" fill="#D9B8FF" font-family="sans-serif" font-size="14" font-weight="bold" textLength="90">last_update</text><text x="352" y="226.565" fill="#D9B8FF" font-family="sans-serif" font-size="14" textLength="66">: duration</text><text x="262" y="252.862" fill="#D9B8FF" font-family="sans-serif" font-size="14" font-weight="bold" textLength="48">mtime</text><text x="310" y="252.862" fill="#D9B8FF" font-family="sans-serif" font-size="14" textLength="70">: datetime</text><text x="262" y="279.159" fill="#D9B8FF" font-family="sans-serif" font-size="14" font-weight="bold" textLength="43">name</text><text x="305" y="279.159" fill="#D9B8FF" font-family="sans-serif" font-size="14" textLength="48">: string</text><text x="262" y="305.456" fill="#D9B8FF" font-family="sans-serif" font-size="14" font-weight="bold" textLength="34">tags</text><text x="296" y="305.456" fill="#D9B8FF" font-family="sans-serif" font-size="14" textLength="171">: dictionary[string, string]</text><g fill="none"><path d="M124.47 202.21c18.46 55.24 52.95 158.49 78.99 236.45" style="stroke:#ffaf37;stroke-width:2"/><path d="m117.62 204.79.3-21.19 12.98 16.75-13.28 4.44z" style="stroke:#ffaf37;stroke-width:2"/></g><g fill="none"><path d="M305.78 337.77c-11.61 34.48-23.43 69.59-33.91 100.69" style="stroke:#ffaf37;stroke-width:2"/><path d="m299.37 335.87 13.02-16.72.25 21.19-13.27-4.47z" style="stroke:#ffaf37;stroke-width:2"/></g></svg>
